api/fonts/Better Web Type Logo.svg

<svg width="180" height="26" viewBox="0 0 180 26" fill="none" xmlns="http://www.w3.org/2000/svg">
<g clip-path="url(#clip0)">
<path d="M0 26H5.67419C10.2217 26 12.0491 23.665 12.0491 19.3056V17.3197C12.0491 13.5448 10.2997 12.5716 9.13343 12.1049C10.2997 11.6381 11.544 10.5473 11.544 6.88876V5.91562C11.544 2.10229 9.83295 0 5.32381 0H0V26ZM3.88762 10.5857V3.30943H5.13067C7.03486 3.30943 7.81238 4.12657 7.81238 6.30562V7.31838C7.81238 9.88743 7.11286 10.587 4.89667 10.587H3.88762V10.5857ZM3.88762 13.8171H4.89667C7.462 13.8171 8.08476 14.9067 8.08476 17.4373V19.1892C8.08476 21.7187 7.54 22.7302 5.20867 22.7302H3.88638V13.8171H3.88762ZM22.573 10.431H17.4869V3.73657H23.5114V0H13.4829V26H23.5114V22.303H17.4869V14.1291H22.573V10.431ZM29.1039 26H33.1079V3.73657H36.9918V0H24.6319V3.73657H29.1039V26Z" fill="#222222"/>
<path d="M40.2344 26H44.2371V3.73657H48.7488V0H36.7021V3.73657H40.2344V26ZM61.1309 26H65.1337V14.3619H66.0672C68.3986 14.3619 68.7873 15.1023 68.7873 18.2545C68.7873 20.1611 68.7489 24.4425 69.0597 26H72.9473C72.6749 24.4425 72.7121 20.2008 72.7121 18.0205C72.7121 14.4795 71.8194 13.39 70.3424 12.6892C71.3143 12.2609 72.9857 11.2481 72.9857 7.23914V6.266C72.9857 1.59714 70.6531 0 66.6888 0H61.1297V26H61.1309ZM65.1337 3.30819H66.2604C68.5546 3.30819 68.9433 4.51533 68.9433 6.53962V7.43352C68.9433 10.275 68.1658 11.0537 66.0672 11.0537H65.1337V3.30819ZM85.4954 26C86.2717 20.3951 87.3996 13.3504 87.9828 7.90152H88.0608C88.6427 13.234 89.6542 20.1611 90.3921 26H94.4729L98.2825 0H94.2401C93.6582 5.87724 92.8794 13.8951 92.5687 18.9552H92.4907C91.9855 13.234 90.8972 5.87724 90.121 0H86.2333C85.4954 5.68286 84.4071 13.6611 83.824 19.1496H83.746C83.5516 14.2455 82.7357 5.60486 82.1526 0H77.8762L81.4518 26H85.4942H85.4954ZM111.15 26H116.825C121.372 26 123.199 23.665 123.199 19.3056V17.3197C123.199 13.5448 121.45 12.5716 120.283 12.1049C121.45 11.6381 122.694 10.5473 122.694 6.88876V5.91562C122.694 2.10229 120.983 0 116.475 0H111.151V26H111.15ZM115.038 10.5857V3.30943H116.281C118.185 3.30943 118.962 4.12657 118.962 6.30562V7.31838C118.962 9.88743 118.263 10.587 116.048 10.587H115.038V10.5857ZM115.038 13.8171H116.048C118.613 13.8171 119.235 14.9067 119.235 17.4373V19.1892C119.235 21.7187 118.69 22.7302 116.359 22.7302H115.038V13.8171ZM132.132 26H136.135V3.73657H140.333V0H127.973V3.73657H132.132V26ZM149.917 26V17.243C149.917 16.6982 149.956 16.4258 149.994 16.2698L154.97 0H150.694C149.723 4.16495 148.557 8.83505 148.051 11.9105H148.012C147.585 9.06905 146.418 4.20333 145.37 0H140.939L145.797 15.9194C145.875 16.2698 145.913 16.4642 145.913 16.775V26H149.917ZM155.62 26H159.623V15.2967H161.178C166.114 15.2967 167.629 12.4552 167.629 8.17391V6.656C167.629 2.02429 165.531 0 161.41 0H155.62V26ZM159.623 3.30819H161.1C163.315 3.30819 163.665 4.86571 163.665 6.77238V8.01791C163.665 10.587 163.238 12.0269 160.711 12.0269H159.623V3.30819ZM178.317 10.431H172.916V3.73657H178.941V0H168.913V26H179.019L179.524 22.303H172.916V14.1291H178.317V10.431ZM58.9333 10.431H53.8448V3.73657H59.8693V0H49.8408V26H59.8421V22.303H53.8448V14.1291H58.9333V10.431ZM108.559 10.431H103.471V3.73657H109.496V0H99.4673V26H109.469V22.303H103.471V14.1291H108.559V10.431Z" fill="#222222"/>
</g>
<defs>
<clipPath id="clip0">
<rect width="179.524" height="26" fill="white"/>
</clipPath>
</defs>
</svg>

<svg width="180" height="26" fill="none" xmlns="http://www.w3.org/2000/svg"><g clip-path="url(#clip0)" fill="#222"><path d="M0 26h5.674c4.548 0 6.375-2.335 6.375-6.694V17.32c0-3.775-1.75-4.748-2.916-5.215 1.167-.467 2.411-1.558 2.411-5.216v-.973C11.544 2.102 9.833 0 5.324 0H0v26zm3.888-15.414V3.309H5.13c1.904 0 2.681.818 2.681 2.997v1.012c0 2.57-.7 3.269-2.915 3.269h-1.01v-.001zm0 3.231h1.009c2.565 0 3.188 1.09 3.188 3.62v1.752c0 2.53-.545 3.541-2.876 3.541H3.886v-8.913h.002zm18.685-3.386h-5.086V3.737h6.024V0H13.483v26H23.51v-3.697h-6.024v-8.174h5.086v-3.698zM29.103 26h4.005V3.737h3.884V0h-12.36v3.737h4.472V26z"/><path d="M40.234 26h4.003V3.737h4.512V0H36.702v3.737h3.532V26zm20.897 0h4.003V14.362h.933c2.332 0 2.72.74 2.72 3.893 0 1.906-.038 6.188.273 7.745h3.887c-.272-1.558-.235-5.8-.235-7.98 0-3.54-.893-4.63-2.37-5.33.972-.43 2.644-1.442 2.644-5.45v-.974C72.986 1.597 70.653 0 66.689 0h-5.56v26h.002zm4.003-22.692h1.126c2.295 0 2.683 1.207 2.683 3.232v.894c0 2.841-.777 3.62-2.876 3.62h-.933V3.308zM85.495 26c.777-5.605 1.905-12.65 2.488-18.098h.078c.582 5.332 1.593 12.26 2.331 18.098h4.08l3.81-26H94.24c-.582 5.877-1.36 13.895-1.671 18.955h-.078C91.986 13.234 90.897 5.877 90.12 0h-3.888c-.738 5.683-1.826 13.661-2.409 19.15h-.078c-.194-4.904-1.01-13.545-1.593-19.15h-4.277l3.576 26h4.043zm25.655 0h5.675c4.547 0 6.374-2.335 6.374-6.694V17.32c0-3.775-1.749-4.748-2.916-5.215 1.167-.467 2.411-1.558 2.411-5.216v-.973c0-3.814-1.711-5.916-6.219-5.916h-5.324v26h-.001zm3.888-15.414V3.309h1.243c1.904 0 2.681.818 2.681 2.997v1.012c0 2.57-.699 3.269-2.914 3.269h-1.01v-.001zm0 3.231h1.01c2.565 0 3.187 1.09 3.187 3.62v1.752c0 2.53-.545 3.541-2.876 3.541h-1.321v-8.913zM132.132 26h4.003V3.737h4.198V0h-12.36v3.737h4.159V26zm17.785 0v-8.757c0-.545.039-.817.077-.973L154.97 0h-4.276c-.971 4.165-2.137 8.835-2.643 11.91h-.039c-.427-2.84-1.594-7.707-2.642-11.91h-4.431l4.858 15.92c.078.35.116.544.116.855V26h4.004zm5.703 0h4.003V15.297h1.555c4.936 0 6.451-2.842 6.451-7.123V6.656c0-4.632-2.098-6.656-6.219-6.656h-5.79v26zm4.003-22.692h1.477c2.215 0 2.565 1.558 2.565 3.464v1.246c0 2.569-.427 4.009-2.954 4.009h-1.088V3.308zm18.694 7.123h-5.401V3.737h6.025V0h-10.028v26h10.106l.505-3.697h-6.608v-8.174h5.401v-3.698zm-119.384 0h-5.088V3.737h6.024V0H49.841v26h10.001v-3.697h-5.997v-8.174h5.088v-3.698zm49.626 0h-5.088V3.737h6.025V0H99.467v26h10.002v-3.697h-5.998v-8.174h5.088v-3.698z"/></g><defs><clipPath id="clip0"><path fill="#fff" d="M0 0H179.524V26H0z"/></clipPath></defs></svg>
